svgs/sharp-solid/person-dress.svg

<svg xmlns="http://www.w3.org/2000/svg" viewBox="0 0 320 512"><!--! Font Awesome Pro 6.6.0 by @fontawesome - https://fontawesome.com License - https://fontawesome.com/license (Commercial License) Copyright 2024 Fonticons, Inc. --><path d="M112 48a48 48 0 1 1 96 0 48 48 0 1 1 -96 0zM91.4 128l17.5 0 102.2 0 17.5 0 9.4 14.8 81.7 128-53.9 34.4-42-65.8L272 384l-40 0 0 96 0 32-64 0 0-32 0-96-16 0 0 96 0 32-64 0 0-32 0-96-40 0L96.2 239.4l-42 65.8L.2 270.8 82 142.8 91.4 128z"/></svg>

<svg xmlns="http://www.w3.org/2000/svg" viewBox="0 0 320 512"><!--! Font Awesome Pro 6.4.2 by @fontawesome - https://fontawesome.com License - https://fontawesome.com/license (Commercial License) Copyright 2023 Fonticons, Inc. --><path d="M112 48a48 48 0 1 1 96 0 48 48 0 1 1 -96 0zM91.4 128h17.5H211.1h17.5l9.4 14.8 81.7 128-53.9 34.4-42-65.8L272 384H232v96 32H168V480 384H152v96 32H88V480 384H48L96.2 239.4l-42 65.8L.2 270.8 82 142.8 91.4 128z"/></svg>
